dist/img/svg/handset.svg

<svg width="17" height="17" viewBox="0 0 17 17" fill="none" xmlns="http://www.w3.org/2000/svg">
<path d="M4.1207 7.51815C5.29403 9.82408 7.18033 11.7104 9.49033 12.8837L11.2829 11.087C11.507 10.863 11.8288 10.7978 12.11 10.8874C13.0225 11.1889 14.0044 11.3519 15.0188 11.3519C15.4711 11.3519 15.8337 11.7144 15.8337 12.1667V15.0185C15.8337 15.4707 15.4711 15.8333 15.0188 15.8333C7.36773 15.8333 1.16699 9.63259 1.16699 1.98148C1.16699 1.52926 1.53366 1.16667 1.98181 1.16667L4.83366 1.16667C5.28588 1.16667 5.64847 1.52926 5.64847 1.98148C5.64847 2.99593 5.81144 3.97778 6.11292 4.89037C6.20255 5.17148 6.13736 5.49333 5.91329 5.71741L4.1207 7.51815Z" fill="currentColor"/>
</svg>

<svg width="17" height="17" viewBox="0 0 17 17" fill="none" xmlns="http://www.w3.org/2000/svg"><path d="M4.12 7.518a12.27 12.27 0 005.37 5.366l1.793-1.797a.818.818 0 01.827-.2 9.274 9.274 0 002.909.465c.452 0 .815.362.815.815v2.851a.812.812 0 01-.815.815c-7.651 0-13.852-6.2-13.852-13.852 0-.452.367-.814.815-.814h2.852a.81.81 0 01.814.814c0 1.015.163 1.997.465 2.91a.817.817 0 01-.2.826L4.121 7.518z" fill="currentColor"/></svg>
